components/ui-node-icon/src/condition/condition.medium.svg

<svg width="24" height="24" viewBox="0 0 24 24" fill="none" xmlns="http://www.w3.org/2000/svg">
  <path fill-rule="evenodd" clip-rule="evenodd" d="M14.1207 1.7206C12.9495 0.549389 11.0507 0.548972 9.879 1.71967L2.10178 9.49009C0.929693 10.6611 0.928859 12.5606 2.09991 13.7327L9.87713 21.5168C11.0493 22.69 12.9509 22.6896 14.1226 21.5159L21.893 13.7318C23.0628 12.5599 23.062 10.6619 21.8911 9.49102L14.1207 1.7206ZM14.5002 5.99998C13.1195 5.99998 12.0002 7.11927 12.0002 8.49998V10.0001C11.4479 10.0001 11.0002 10.4478 11.0002 11.0001C11.0002 11.5524 11.4479 12.0001 12.0002 12.0001V15C12.0002 15.5523 12.4479 16 13.0002 16C13.5525 16 14.0002 15.5523 14.0002 15V12.0001H15.0002C15.5525 12.0001 16.0002 11.5524 16.0002 11.0001C16.0002 10.4478 15.5525 10.0001 15.0002 10.0001H14.0002V8.49998C14.0002 8.22384 14.224 7.99998 14.5002 7.99998H15.0002C15.5525 7.99998 16.0002 7.55226 16.0002 6.99998C16.0002 6.4477 15.5525 5.99998 15.0002 5.99998H14.5002ZM10.0002 11C10.0002 10.4477 9.55247 9.99998 9.00019 9.99998C8.4479 9.99998 8.00019 10.4477 8.00019 11V15C8.00019 15.5523 8.4479 16 9.00019 16C9.55247 16 10.0002 15.5523 10.0002 15V11ZM7.75019 8.24998C7.75019 7.55962 8.30983 6.99998 9.00019 6.99998C9.69054 6.99998 10.2502 7.55962 10.2502 8.24998C10.2502 8.94034 9.69054 9.49998 9.00019 9.49998C8.30983 9.49998 7.75019 8.94034 7.75019 8.24998Z" fill="var(--tbl--colors--icons--clean--primary)"/>
</svg>

<svg xmlns="http://www.w3.org/2000/svg" width="24" height="24" fill="none" viewBox="0 0 24 24">
  <path fill="var(--tbl--colors--icons--clean--primary)" fill-rule="evenodd" d="M14.12 1.72a3 3 0 0 0-4.241 0L2.102 9.49a3 3 0 0 0-.002 4.243l7.777 7.784a3 3 0 0 0 4.246-.001l7.77-7.784a3 3 0 0 0-.002-4.241l-7.77-7.77ZM14.5 6A2.5 2.5 0 0 0 12 8.5V10a1 1 0 1 0 0 2v3a1 1 0 1 0 2 0v-3h1a1 1 0 1 0 0-2h-1V8.5a.5.5 0 0 1 .5-.5h.5a1 1 0 1 0 0-2h-.5ZM10 11a1 1 0 1 0-2 0v4a1 1 0 1 0 2 0v-4ZM7.75 8.25a1.25 1.25 0 1 1 2.5 0 1.25 1.25 0 0 1-2.5 0Z" clip-rule="evenodd"/>
</svg>
